X: 9640
T: Day After Christmas, The
R: polka
M: 2/4
K: Dmajor
d2 B/c/d|AF D2|ec AB/c/|de fe|d2 B/c/d|AF D2|ec A/B/c|d2 d2:|
fe f/g/a|bg ed|c/B/A Bc|de fe|fe f/g/a|bg ed|c/B/A Bc|d2 d2:|

